X:1
T:Babes in the Woods
M:3/2
L:1/4
K:D
 D| D A A A| F E D A| B B c B| A3| A| F E F A| B A F D|
M:3/2
 A3 D F E| D3||
